src/images/hero-img/mobile-learning.svg

<svg width="42" height="42" viewBox="0 0 42 42" fill="none" xmlns="http://www.w3.org/2000/svg">
<g clip-path="url(#clip0)">
<path d="M38.6619 0.33606H18.4873C17.174 0.33606 16.1056 1.4044 16.1056 2.71775V11.0689L1.11766 17.3597C0.947973 17.4308 0.832622 17.591 0.819594 17.7747C0.806565 17.9583 0.897448 18.1337 1.05538 18.2284L2.96677 19.3724V31.5633C1.98935 31.7861 1.25589 32.661 1.25589 33.7077V34.8828C1.25589 35.1522 1.47452 35.3709 1.74399 35.3709H5.16669C5.43616 35.3709 5.65479 35.1522 5.65479 34.8828V33.7077C5.65479 32.6624 4.92121 31.7887 3.94296 31.5645V19.9567L5.45427 20.8612C5.40781 21.2097 5.44839 20.2538 5.43267 26.5369C5.43267 28.6022 10.7229 29.7086 16.1056 29.772V39.2858C16.1056 39.7772 16.2561 40.2343 16.5134 40.6136C16.9414 41.2468 17.6659 41.664 18.486 41.664H38.6606C39.9727 41.664 41.0401 40.5963 41.0401 39.2845C41.0401 39.3497 41.0374 37.2693 41.0401 2.71807C41.0401 1.42255 39.9689 0.33606 38.6619 0.33606ZM4.6786 33.7077V34.3947H2.23208V33.7077C2.23208 33.0314 2.7796 32.4811 3.45232 32.4811C4.12854 32.4811 4.6786 33.0314 4.6786 33.7077ZM38.6619 40.6853H18.4873C18.0032 40.6853 17.5756 40.4402 17.3227 40.0683C17.1713 39.8443 17.0828 39.5745 17.0828 39.2845V35.9867H40.0614V39.2858C40.0614 40.0503 39.4243 40.6853 38.6619 40.6853ZM40.0614 35.0105H17.0818V29.7749C19.7099 29.7448 27.7611 29.1661 27.7611 26.5369C27.7582 22.5899 27.7681 20.9893 27.7487 20.8539L32.1317 18.2284C32.2897 18.1337 32.3805 17.9583 32.3675 17.7747C32.3545 17.591 32.2391 17.4308 32.0695 17.3597L17.0818 11.0688V6.99208H40.0614V35.0105ZM16.5937 23.2962C13.8863 23.2962 8.67348 23.6459 6.40886 25.1247C6.42323 20.6016 6.25192 20.8961 6.80893 20.5126C8.2157 19.4766 12.2393 18.7534 16.5937 18.7534C18.4929 18.7534 26.7849 19.2755 26.7849 21.0312V25.1253C24.4991 23.6328 19.3127 23.2962 16.5937 23.2962ZM17.0828 2.71807C17.0828 1.9443 17.7123 1.31479 18.486 1.31479H38.6606C39.4351 1.31479 40.0614 1.95313 40.0614 2.71775V6.01589H17.0828V2.71807ZM16.5937 11.9226L30.8028 17.8865L27.282 19.9934C25.4102 18.1372 19.2184 17.7772 16.5937 17.7772C13.9656 17.7772 7.77332 18.1383 5.90551 19.994L2.38366 17.8865L16.5937 11.9226ZM6.40886 26.5369C6.40886 25.7469 9.90687 24.2724 16.5937 24.2724C23.2847 24.2724 26.7849 25.7469 26.7849 26.5369C26.7849 27.3275 23.2847 28.8019 16.5937 28.8019C9.90687 28.8019 6.40886 27.3275 6.40886 26.5369Z" fill="#FF6B09"/>
<path d="M28.5733 36.7227C27.6832 36.7227 26.959 37.4465 26.959 38.3369C26.959 39.2273 27.6832 39.9518 28.5733 39.9518C29.4637 39.9518 30.1879 39.2273 30.1879 38.3369C30.1879 37.4465 29.4637 36.7227 28.5733 36.7227ZM28.5733 38.9756C28.2215 38.9756 27.9352 38.689 27.9352 38.3369C27.9352 37.9848 28.2215 37.6988 28.5733 37.6988C28.9253 37.6988 29.2117 37.9848 29.2117 38.3369C29.2117 38.689 28.9253 38.9756 28.5733 38.9756Z" fill="#FF6B09"/>
<path d="M30.4351 3.17725H26.7114V4.15344H30.4351V3.17725Z" fill="#FF6B09"/>
</g>
<defs>
<clipPath id="clip0">
<rect width="41.8723" height="41" fill="white" transform="translate(0 0.5)"/>
</clipPath>
</defs>
</svg>

<svg width="42" height="42" fill="none" xmlns="http://www.w3.org/2000/svg"><g clip-path="url(#clip0)" fill="#FF6B09"><path d="M38.662.336H18.487a2.384 2.384 0 00-2.381 2.382v8.35L1.118 17.36a.487.487 0 00-.063.868l1.912 1.144v12.191a2.203 2.203 0 00-1.711 2.145v1.175c0 .27.219.488.488.488h3.423c.27 0 .488-.219.488-.488v-1.175a2.203 2.203 0 00-1.712-2.143V19.956l1.511.904c-.046.349-.006-.607-.021 5.676 0 2.065 5.29 3.172 10.673 3.235v9.514a2.379 2.379 0 002.38 2.378h20.175a2.382 2.382 0 002.38-2.38c0 .066-.004-2.015 0-36.566 0-1.295-1.072-2.382-2.38-2.382zM4.679 33.708v.687H2.232v-.687c0-.677.548-1.227 1.22-1.227.677 0 1.227.55 1.227 1.227zm33.983 6.977H18.487c-.484 0-.911-.245-1.164-.617a1.395 1.395 0 01-.24-.783v-3.298H40.06v3.299c0 .764-.637 1.4-1.4 1.4zm1.4-5.675h-22.98v-5.235c2.628-.03 10.68-.609 10.68-3.238-.004-3.947.006-5.548-.013-5.683l4.383-2.626a.488.488 0 00-.063-.868l-14.987-6.291V6.992h22.98V35.01zM16.593 23.297c-2.708 0-7.92.35-10.185 1.829.014-4.523-.157-4.229.4-4.612 1.407-1.036 5.43-1.76 9.785-1.76 1.899 0 10.19.523 10.19 2.278v4.094c-2.285-1.492-7.471-1.829-10.19-1.829zm.489-20.578c0-.774.63-1.403 1.403-1.403h20.175c.774 0 1.4.638 1.4 1.403v3.298H17.083V2.718zm-.49 9.205l14.21 5.964-3.521 2.106c-1.872-1.856-8.064-2.216-10.688-2.216-2.628 0-8.82.361-10.688 2.217l-3.522-2.107 14.21-5.964zM6.41 26.537c0-.79 3.498-2.265 10.185-2.265 6.69 0 10.19 1.475 10.19 2.265s-3.5 2.265-10.19 2.265c-6.687 0-10.185-1.474-10.185-2.265z"/><path d="M28.573 36.723c-.89 0-1.614.724-1.614 1.614 0 .89.724 1.615 1.614 1.615.89 0 1.615-.725 1.615-1.615s-.724-1.614-1.615-1.614zm0 2.253a.64.64 0 11.003-1.279.64.64 0 01-.003 1.279zM30.435 3.177h-3.724v.976h3.724v-.976z"/></g><defs><clipPath id="clip0"><path fill="#fff" transform="translate(0 .5)" d="M0 0h41.872v41H0z"/></clipPath></defs></svg>
